addons/godot-flexbox/assets/dark/AlignContentEndRowIcon.svg

<svg xmlns="http://www.w3.org/2000/svg" width="16" height="16" fill="none"><g fill="#d6d6d6" clip-path="url(#a)"><path d="M16 15H0v1h16v-1ZM4 5h8v4H4V5ZM4 10h8v4H4v-4Z"/></g><defs><clipPath id="a"><path fill="#fff" d="M0 0h16v16H0z"/></clipPath></defs></svg>

<svg width="16" height="16" viewBox="0 0 16 16" fill="none" xmlns="http://www.w3.org/2000/svg">
<g clip-path="url(#clip0_1_2)">
<path d="M16 15H0V16H16V15Z" fill="#d6d6d6"/>
<path d="M4 5H12V9H4V5Z" fill="#d6d6d6"/>
<path d="M4 10H12V14H4V10Z" fill="#d6d6d6"/>
</g>
<defs>
<clipPath id="clip0_1_2">
<rect width="16" height="16" fill="white"/>
</clipPath>
</defs>
</svg>
